SVG_Azure_All/App Function.svg

<?xml version="1.0" encoding="UTF-8" standalone="no"?>
<!-- Generated by Microsoft Visio, SVG Export App Function.svg Page-1 -->

<svg
   xmlns:dc="http://purl.org/dc/elements/1.1/"
   xmlns:cc="http://creativecommons.org/ns#"
   xmlns:rdf="http://www.w3.org/1999/02/22-rdf-syntax-ns#"
   xmlns:svg="http://www.w3.org/2000/svg"
   xmlns="http://www.w3.org/2000/svg"
   xmlns:sodipodi="http://sodipodi.sourceforge.net/DTD/sodipodi-0.dtd"
   xmlns:inkscape="http://www.inkscape.org/namespaces/inkscape"
   width="0.78735805in"
   height="0.63011408in"
   viewBox="0 0 56.69001 45.36838"
   xml:space="preserve"
   class="st5"
   version="1.1"
   id="svg44"
   sodipodi:docname="App Function.svg"
   style="font-size:12px;overflow:visible;color-interpolation-filters:sRGB;fill:none;fill-rule:evenodd;stroke-linecap:square;stroke-miterlimit:3"
   inkscape:version="0.92.5 (2060ec1f9f, 2020-04-08)"><metadata
   id="metadata48"><rdf:RDF><cc:Work
       rdf:about=""><dc:format>image/svg+xml</dc:format><dc:type
         rdf:resource="http://purl.org/dc/dcmitype/StillImage" /></cc:Work></rdf:RDF></metadata><sodipodi:namedview
   pagecolor="#ffffff"
   bordercolor="#666666"
   borderopacity="1"
   objecttolerance="10"
   gridtolerance="10"
   guidetolerance="10"
   inkscape:pageopacity="0"
   inkscape:pageshadow="2"
   inkscape:window-width="640"
   inkscape:window-height="480"
   id="namedview46"
   showgrid="false"
   inkscape:zoom="1.6072266"
   inkscape:cx="37.795304"
   inkscape:cy="28.072535"
   inkscape:window-x="0"
   inkscape:window-y="0"
   inkscape:window-maximized="0"
   inkscape:current-layer="svg44" />
	<style
   type="text/css"
   id="style2">
	<![CDATA[
		.st1 {fill:#0078d4;stroke:none;stroke-linecap:butt;stroke-width:30.7534}
		.st2 {fill:#5ea0ef;stroke:none;stroke-linecap:butt;stroke-width:30.7534}
		.st3 {fill:url(#grad0-10);stroke:none;stroke-linecap:butt;stroke-width:30.7534}
		.st4 {fill:#949494;stroke:none;stroke-linecap:butt;stroke-width:30.7534}
		.st5 {fill:none;fill-rule:evenodd;font-size:12px;overflow:visible;stroke-linecap:square;stroke-miterlimit:3}
	]]>
	</style>

	<defs
   id="Patterns_And_Gradients">
		<linearGradient
   id="grad0-10"
   x1="-0.00050646197"
   y1="65.580719"
   x2="30.397669"
   y2="65.580719"
   gradientTransform="scale(0.87145843,1.1475017)"
   gradientUnits="userSpaceOnUse">
			<stop
   offset="0"
   stop-color="#0078d4"
   stop-opacity="1"
   id="stop4" />
			<stop
   offset="0.38"
   stop-color="#2989e0"
   stop-opacity="1"
   id="stop6" />
			<stop
   offset="0.785"
   stop-color="#4f9aeb"
   stop-opacity="1"
   id="stop8" />
			<stop
   offset="1"
   stop-color="#5ea0ef"
   stop-opacity="1"
   id="stop10" />
		</linearGradient>
	</defs>
	<g
   id="g42"
   transform="translate(-30.7534,-30.750104)">
		<title
   id="title14">Page-1</title>
		<g
   id="group10195-1"
   transform="translate(30.7534,-34.0157)">
			<title
   id="title16">App Function</title>
			<g
   id="group10196-2">
				<title
   id="title18">g10</title>
				<g
   id="shape10197-3"
   transform="translate(30.0169,-9.20935)">
					<title
   id="title20">path2</title>
					<path
   d="m 6.06,102.49 c 0.15,0.6 0.27,1.18 0.42,1.75 0.37,1.44 0.72,2.89 1.15,4.32 a 2.09391,2.06481 -180 0 0 1.51,1.57 2.20411,2.17348 -180 0 0 1.84,-0.54 11.5747,11.4139 -180 0 0 2.82,-2.9 c 0.26,-0.37 0.47,-0.78 0.72,-1.19 l -0.67,-0.31 a 9.188,9.06031 0 0 1 -0.8,1.17 11.7322,11.5691 0 0 1 -1.59,1.45 c -0.42,0.31 -0.77,0.18 -1.01,-0.27 a 4.18466,4.12651 0 0 1 -0.39,-1 c -0.6,-2.4 -1.18,-4.8 -1.76,-7.21 L 7.93,97.78 C 7.75,97.16 7.59,96.62 7.45,96.09 A 8.40396,8.28717 -180 0 0 5.5,92.3 0.503797,0.496796 -180 0 0 4.974162,92.135436 C 3.51,92.4 2.03,92.65 0.57,92.92 0,93.02 0,93.03 0.09,93.67 h 0.34 c 0.43,0 0.87,-0.02 1.3,0.02 a 2.85905,2.81931 0 0 1 2.71,2.41 c 0.46,1.5 0.82,3.03 1.21,4.55 z"
   class="st1"
   id="path22"
   inkscape:connector-curvature="0"
   style="fill:#0078d4;stroke:none;stroke-width:30.7534008;stroke-linecap:butt" />
				</g>
				<g
   id="shape10198-5"
   transform="translate(27.0122,-9.20003)">
					<title
   id="title25">path4</title>
					<path
   d="m 9.14,102.48 c -0.85,1.32 -1.63,2.64 -2.51,3.88 a 28.2221,27.8299 0 0 1 -2.32,2.7 3.62734,3.57693 0 0 1 -2.04,1.07 1.97111,1.94371 0 0 1 -2.24,-1.22 1.47676,1.45623 0 0 1 0.45,-1.6 1.38544,1.36619 0 0 1 1.69,-0.16 9.13132,9.00442 0 0 1 0.89,0.62 c 0.41,0.31 0.63,0.36 1.01,0 a 10.1421,10.0011 -180 0 0 1.51,-1.65 c 1.07,-1.58 2.06,-3.2 3.06,-4.82 l 2.37,-3.55 c 0.19,-0.27 0.34,-0.47 0.48,-0.68 a 17.6329,17.3878 0 0 1 2.39,-3.14 6.64382,6.55149 0 0 1 2.54,-1.73 2.12225,2.09275 0 0 1 2.21,0.39 1.53658,1.51523 0 0 1 0.33,1.7 1.25949,1.24199 0 0 1 -1.22,0.78 2.65753,2.6206 0 0 1 -1.23,-0.19 2.04982,2.02134 -180 0 0 -2.68,0.7 c -0.85,1.08 -1.62,2.22 -2.4,3.34 z"
   class="st2"
   id="path27"
   inkscape:connector-curvature="0"
   style="fill:#5ea0ef;stroke:none;stroke-width:30.7534008;stroke-linecap:butt" />
				</g>
				<g
   id="shape10199-7"
   transform="translate(8.71884,-8.21265)">
					<title
   id="title30">path6</title>
					<path
   d="m 25.6,75.86 a 3.41952,3.372 -180 0 0 -2.16,-0.6 8.92351,8.79949 -180 0 0 -4.45,1.33 10.649,10.501 -180 0 0 -3.75,3.59 21.4429,21.1449 -180 0 0 -2.28,5.92 H 8.83 L 8.66,86.79 8.34,88 8.05,89.13 h 4.14 l -3.23,12.8 a 8.77552,8.65356 0 0 1 -1.32,3.47 2.51899,2.48398 0 0 1 -1.82,0.51 17.4944,17.2512 0 0 1 -2.21,-0.14 10.6459,10.4979 -180 0 0 -1.19,-0.1 2.6103,2.57402 -180 0 0 -1.69,0.54 1.96796,1.94061 -180 0 0 -0.73,1.55 2.17892,2.14864 -180 0 0 0.94,1.77 3.57066,3.52104 -180 0 0 2.21,0.6 9.60678,9.47327 -180 0 0 6.66,-2.8 16.1813,15.9565 -180 0 0 4.31,-7.97 l 2.52,-10.23 h 4.66 l 0.16,-0.71 0.28,-1.21 0.26,-1.12 h -4.58 l 0.6,-2.51 a 11.0961,10.9419 0 0 1 1.35,-3.45 c 0.43,-0.65 0.86,-0.98 1.29,-0.98 a 5.66772,5.58895 0 0 1 1.11,0.15 13.7285,13.5377 -180 0 0 2.48,0.38 2.25134,2.22006 -180 0 0 1.59,-0.59 2.06872,2.03997 -180 0 0 0.65,-1.52 2.12854,2.09896 -180 0 0 -0.89,-1.71 z M 1.49,108.77 a 1.45471,1.4345 0 0 1 -0.42,-0.46 1.45471,1.4345 -180 0 0 0.42,0.46 2.04668,2.01823 -180 0 0 0.8,0.34 2.04668,2.01823 0 0 1 -0.81,-0.33 z"
   class="st3"
   id="path32"
   inkscape:connector-curvature="0"
   style="fill:url(#grad0-10);stroke:none;stroke-width:30.7534008;stroke-linecap:butt" />
				</g>
				<g
   id="shape10200-11">
					<title
   id="title35">path8</title>
					<path
   d="M 6.49,81.93 V 70.51 c 0,-1.5 0.55,-2.39 1.6,-2.71 A 1.55547,1.53386 -180 0 0 9.15,66.33 1.57437,1.55249 -180 0 0 7.46,64.77 6.00463,5.92118 -180 0 0 3.94,65.96 6.15577,6.07022 -180 0 0 2.43,70.62 v 11.65 c 0,1.62 -0.5,2.6 -1.5,2.95 A 1.28468,1.26683 -180 0 0 0,86.39 v 2.1 a 1.28783,1.26993 -180 0 0 0.94,1.17 c 1.01,0.35 1.51,1.33 1.51,2.95 v 11.65 a 6.15577,6.07022 -180 0 0 1.5,4.68 6.00463,5.92118 -180 0 0 3.53,1.19 1.57437,1.55249 -180 0 0 1.69,-1.55 A 1.55547,1.53386 -180 0 0 8.1,107.1 C 7.05,106.78 6.5,105.89 6.5,104.39 V 92.95 c 0,-2.63 -0.69,-4.38 -2.43,-5.07 0,0 -0.71,-0.15 -0.71,-0.44 0,-0.35 0.88,-0.59 0.88,-0.59 1.74,-0.69 2.25,-2.29 2.25,-4.92 z m 43.7,0 V 70.51 c 0,-1.5 -0.55,-2.39 -1.6,-2.71 a 1.55547,1.53386 0 0 1 -1.06,-1.47 1.57437,1.55249 0 0 1 1.69,-1.56 6.00463,5.92118 0 0 1 3.52,1.19 6.15577,6.07022 0 0 1 1.51,4.68 v 11.63 c 0,1.62 0.5,2.6 1.5,2.95 a 1.28468,1.26683 0 0 1 0.94,1.17 v 2.1 a 1.28783,1.26993 0 0 1 -0.94,1.17 c -1,0.35 -1.5,1.33 -1.5,2.95 v 11.65 a 6.15577,6.07022 0 0 1 -1.51,4.68 6.00463,5.92118 0 0 1 -3.52,1.19 1.57437,1.55249 0 0 1 -1.69,-1.55 1.55547,1.53386 0 0 1 1.06,-1.48 c 1.05,-0.32 1.6,-1.21 1.6,-2.71 V 92.95 c 0,-2.63 0.7,-4.38 2.43,-5.07 0,0 0.71,-0.15 0.72,-0.44 0,-0.35 -0.89,-0.59 -0.89,-0.59 -1.74,-0.69 -2.26,-2.29 -2.26,-4.92 z"
   class="st4"
   id="path37"
   inkscape:connector-curvature="0"
   style="fill:#949494;stroke:none;stroke-width:30.7534008;stroke-linecap:butt" />
				</g>
			</g>
		</g>
	</g>
</svg>

<?xml version="1.0" encoding="UTF-8" standalone="no"?>
<!DOCTYPE svg PUBLIC "-//W3C//DTD SVG 1.1//EN" "http://www.w3.org/Graphics/SVG/1.1/DTD/svg11.dtd">
<!-- Generated by Microsoft Visio, SVG Export App Function.svg Page-1 -->
<svg xmlns="http://www.w3.org/2000/svg" xmlns:xlink="http://www.w3.org/1999/xlink" xmlns:ev="http://www.w3.org/2001/xml-events"
		width="1.64166in" height="1.52955in" viewBox="0 0 118.2 110.128" xml:space="preserve" color-interpolation-filters="sRGB"
		class="st5">
	<style type="text/css">
	<![CDATA[
		.st1 {fill:#0078d4;stroke:none;stroke-linecap:butt;stroke-width:30.7534}
		.st2 {fill:#5ea0ef;stroke:none;stroke-linecap:butt;stroke-width:30.7534}
		.st3 {fill:url(#grad0-10);stroke:none;stroke-linecap:butt;stroke-width:30.7534}
		.st4 {fill:#949494;stroke:none;stroke-linecap:butt;stroke-width:30.7534}
		.st5 {fill:none;fill-rule:evenodd;font-size:12px;overflow:visible;stroke-linecap:square;stroke-miterlimit:3}
	]]>
	</style>

	<defs id="Patterns_And_Gradients">
		<linearGradient id="grad0-10" x1="0" y1="0" x2="1" y2="0" gradientTransform="rotate(0 0.5 0.5)">
			<stop offset="0" stop-color="#0078d4" stop-opacity="1"/>
			<stop offset="0.38" stop-color="#2989e0" stop-opacity="1"/>
			<stop offset="0.785" stop-color="#4f9aeb" stop-opacity="1"/>
			<stop offset="1" stop-color="#5ea0ef" stop-opacity="1"/>
		</linearGradient>
	</defs>
	<g>
		<title>Page-1</title>
		<g id="group9970-1" transform="translate(30.7534,-34.0157)">
			<title>App Function</title>
			<g id="group9971-2">
				<title>g10</title>
				<g id="shape9972-3" transform="translate(30.0169,-9.20935)">
					<title>path2</title>
					<path d="M6.06 102.49 C6.21 103.09 6.33 103.67 6.48 104.24 C6.85 105.68 7.2 107.13 7.63 108.56 A2.09391 2.06481
								 -180 0 0 9.14 110.13 A2.20411 2.17348 -180 0 0 10.98 109.59 A11.5747 11.4139 -180 0 0 13.8 106.69
								 C14.06 106.32 14.27 105.91 14.52 105.5 L13.85 105.19 A9.188 9.06031 0 0 1 13.05 106.36 A11.7322
								 11.5691 0 0 1 11.46 107.81 C11.04 108.12 10.69 107.99 10.45 107.54 A4.18466 4.12651 0 0 1 10.06
								 106.54 C9.46 104.14 8.88 101.74 8.3 99.33 L7.93 97.78 C7.75 97.16 7.59 96.62 7.45 96.09 A8.40396
								 8.28717 -180 0 0 5.5 92.3 a0.503797 0.496796 -180 0 0 -0.525838 -0.164564 C3.51 92.4 2.03 92.65
								 0.57 92.92 C0 93.02 0 93.03 0.09 93.67 L0.43 93.67 C0.86 93.67 1.3 93.65 1.73 93.69 A2.85905 2.81931
								 0 0 1 4.44 96.1 C4.9 97.6 5.26 99.13 5.65 100.65 L6.06 102.49 Z" class="st1"/>
				</g>
				<g id="shape9973-5" transform="translate(27.0122,-9.20003)">
					<title>path4</title>
					<path d="M9.14 102.48 C8.29 103.8 7.51 105.12 6.63 106.36 A28.2221 27.8299 0 0 1 4.31 109.06 A3.62734 3.57693
								 0 0 1 2.27 110.13 A1.97111 1.94371 0 0 1 0.03 108.91 A1.47676 1.45623 0 0 1 0.48 107.31 A1.38544
								 1.36619 0 0 1 2.17 107.15 A9.13132 9.00442 0 0 1 3.06 107.77 C3.47 108.08 3.69 108.13 4.07 107.77
								 A10.1421 10.0011 -180 0 0 5.58 106.12 C6.65 104.54 7.64 102.92 8.64 101.3 L11.01 97.75 C11.2 97.48
								 11.35 97.28 11.49 97.07 A17.6329 17.3878 0 0 1 13.88 93.93 A6.64382 6.55149 0 0 1 16.42 92.2 A2.12225
								 2.09275 0 0 1 18.63 92.59 A1.53658 1.51523 0 0 1 18.96 94.29 A1.25949 1.24199 0 0 1 17.74 95.07
								 A2.65753 2.6206 0 0 1 16.51 94.88 A2.04982 2.02134 -180 0 0 13.83 95.58 C12.98 96.66 12.21 97.8
								 11.43 98.92 L9.14 102.48 Z" class="st2"/>
				</g>
				<g id="shape9974-7" transform="translate(8.71884,-8.21265)">
					<title>path6</title>
					<path d="M25.6 75.86 A3.41952 3.372 -180 0 0 23.44 75.26 A8.92351 8.79949 -180 0 0 18.99 76.59 A10.649 10.501
								 -180 0 0 15.24 80.18 A21.4429 21.1449 -180 0 0 12.96 86.1 L8.83 86.1 L8.66 86.79 L8.34 88 L8.05
								 89.13 L12.19 89.13 L8.96 101.93 A8.77552 8.65356 0 0 1 7.64 105.4 A2.51899 2.48398 0 0 1 5.82 105.91
								 A17.4944 17.2512 0 0 1 3.61 105.77 A10.6459 10.4979 -180 0 0 2.42 105.67 A2.6103 2.57402 -180 0
								 0 0.73 106.21 A1.96796 1.94061 -180 0 0 -0 107.76 A2.17892 2.14864 -180 0 0 0.94 109.53 A3.57066
								 3.52104 -180 0 0 3.15 110.13 A9.60678 9.47327 -180 0 0 9.81 107.33 A16.1813 15.9565 -180 0 0 14.12
								 99.36 L16.64 89.13 L21.3 89.13 L21.46 88.42 L21.74 87.21 L22 86.09 L17.42 86.09 L18.02 83.58 A11.0961
								 10.9419 0 0 1 19.37 80.13 C19.8 79.48 20.23 79.15 20.66 79.15 A5.66772 5.58895 0 0 1 21.77 79.3
								 A13.7285 13.5377 -180 0 0 24.25 79.68 A2.25134 2.22006 -180 0 0 25.84 79.09 A2.06872 2.03997 -180
								 0 0 26.49 77.57 A2.12854 2.09896 -180 0 0 25.6 75.86 ZM1.49 108.77 A1.45471 1.4345 0 0 1 1.07 108.31
								 A1.45471 1.4345 -180 0 0 1.49 108.77 A2.04668 2.01823 -180 0 0 2.29 109.11 A2.04668 2.01823 0 0
								 1 1.48 108.78 L1.49 108.77 Z" class="st3"/>
				</g>
				<g id="shape9975-11">
					<title>path8</title>
					<path d="M6.49 81.93 L6.49 70.51 C6.49 69.01 7.04 68.12 8.09 67.8 A1.55547 1.53386 -180 0 0 9.15 66.33 A1.57437
								 1.55249 -180 0 0 7.46 64.77 A6.00463 5.92118 -180 0 0 3.94 65.96 A6.15577 6.07022 -180 0 0 2.43
								 70.62 L2.43 82.27 C2.43 83.89 1.93 84.87 0.93 85.22 A1.28468 1.26683 -180 0 0 -0 86.39 L0 88.49
								 A1.28783 1.26993 -180 0 0 0.94 89.66 C1.95 90.01 2.45 90.99 2.45 92.61 L2.45 104.26 A6.15577 6.07022
								 -180 0 0 3.95 108.94 A6.00463 5.92118 -180 0 0 7.48 110.13 A1.57437 1.55249 -180 0 0 9.17 108.58
								 A1.55547 1.53386 -180 0 0 8.1 107.1 C7.05 106.78 6.5 105.89 6.5 104.39 L6.5 92.95 C6.5 90.32 5.81
								 88.57 4.07 87.88 C4.07 87.88 3.36 87.73 3.36 87.44 C3.36 87.09 4.24 86.85 4.24 86.85 C5.98 86.16
								 6.49 84.56 6.49 81.93 ZM50.19 81.93 L50.19 70.51 C50.19 69.01 49.64 68.12 48.59 67.8 A1.55547 1.53386
								 0 0 1 47.53 66.33 A1.57437 1.55249 0 0 1 49.22 64.77 A6.00463 5.92118 0 0 1 52.74 65.96 A6.15577
								 6.07022 0 0 1 54.25 70.64 L54.25 82.27 C54.25 83.89 54.75 84.87 55.75 85.22 A1.28468 1.26683 0 0
								 1 56.69 86.39 L56.69 88.49 A1.28783 1.26993 0 0 1 55.75 89.66 C54.75 90.01 54.25 90.99 54.25 92.61
								 L54.25 104.26 A6.15577 6.07022 0 0 1 52.74 108.94 A6.00463 5.92118 0 0 1 49.22 110.13 A1.57437 1.55249
								 0 0 1 47.53 108.58 A1.55547 1.53386 0 0 1 48.59 107.1 C49.64 106.78 50.19 105.89 50.19 104.39 L50.19
								 92.95 C50.19 90.32 50.89 88.57 52.62 87.88 C52.62 87.88 53.33 87.73 53.34 87.44 C53.34 87.09 52.45
								 86.85 52.45 86.85 C50.71 86.16 50.19 84.56 50.19 81.93 Z" class="st4"/>
				</g>
			</g>
		</g>
	</g>
</svg>
